X: 2
T: Hole In The Wall
R: three-two
M: 3/2
L: 1/8
K: Gmaj
|: B3c Bcd2 A2d2 | G3A GAB2 F2B2 | E3F EFG2 D2B2 | G4- G2F2 G4 :|
g3f efg2 f2e2 | ^d3e def2 B2f2 | g3f efg2 f2e2 | e4- e2^d2 e4 |
E3F EFG2 FGA2 | G2GA GAB2 ABc2 | B3c Bcd2 D2d2 | B4- B2A2 G4 |]